gamepad-right.svg

<svg fill="currentColor" viewBox="0 0 24 24"><path d="M9 2v5.5l3 3 3-3V2zM2 9v6h5.5l3-3-3-3zm14.5 0-3 3 3 3H22V9zm1.5 2h2v2h-2zm-6 2.5-3 3V22h6v-5.5z"/></svg>

<svg  viewBox="0 0 24 24" fill="currentColor"><path  d="M9,2V7.5L12,10.5L15,7.5V2H9M2,9V15H7.5L10.5,12L7.5,9H2M16.5,9L13.5,12L16.5,15H22V9H16.5M18,11H20V13H18V11M12,13.5L9,16.5V22H15V16.5L12,13.5Z"/></svg>
